X: 11622
M: 3/4
L: 1/8
K: Eb
E2 |\
E4 ba | gfedcB | (B2A2) G2 | (G2A2) B,2 |\
!p!B,4 ag | gfedcB | (BA) G2 F2 "^Fin."| HE4 :|\
|:!f! b2 |\
b4 af !p!| fg e2!f!B2 | B4 A>F | F>G E2 E2 |
E4 ba | gfedcB | B2 AG F2 | HE4 :|\
|:[K:Bb] !p!F2 |\
dz cz Bz | Af f4 | {=e}dc/B/ A2 G2 | F4 :|\
|: F2 |\
c4 (de) | f4 (ed) | (cB)(AB)(ed) | dcBAGF |\
c4 (de) | f4 (ed) | (cB)(AB)(ed) | (d2c2) F2 |
!f!e6 | (e2d2) g2 | !p!fg B2 A2 | Bc/d/ e/f/g/a/ ba |\
gz fz ez | db b4 | {a}gf/e/ d2 c2 | "^D.C."B4 :|


